X:1
T:Title
%%score { ( 1 4 ) | ( 2 3 ) }
L:1/8
M:4/4
K:C
V:1 treble nm="Grand Piano"
V:4 treble 
V:2 bass 
V:3 bass 
V:1
 z4 z2[Q:1/4=100] [EG]2 | [EG]3 [EG] [_EA][EA][E^F][EA] | [EG]6 [Ec]2 | c3 c dcFA |[M:3/4] [EG]6 | %5
[M:1/4] [EG]2 |[M:4/4] G3 G GBed | c6 [EB]2 | [^FB][FA] z [=F^G] [^FA]2 [Fd]2 |[M:7/8] d- d3 G3 | %10
[M:1/4] G2 |[M:4/4] [Ge]4 z4 | [EG]6 z2 | [FA]4 z4 | [GB]2 c2 z4 | [Gc]4 z4 | [Af]6 z2 | %17
 AG z e [C^FA]2 [D=FB]2 |[M:3/4] c6 |] %19
V:2
 z4 z2 [C,G,]2 | [C,G,]3 [C,G,] [C,^F,][C,F,][C,A,][C,F,] | [C,G,]6 [C,G,]2 | %3
 [F,A,F]3 [F,A,F] [F,A,F][F,A,F][F,A,C][F,CF] |[M:3/4] [C,C]6 |[M:1/4] [C,C]2 | %6
[M:4/4][K:treble] [G,B,F]3 [G,B,F] [G,B,F][G,DF][G,B,G][G,B,F] | [A,CE]6 [C,C]2 | %8
 [D,C][D,C] z [D,B,] [D,C]2 [D,C]2 |[M:7/8][K:treble] F-F-F- F- F2- F/ z/ |[M:1/4][K:bass] G,2 | %11
[M:4/4] [C,C]C,C,[C,C] [F,C][F,C][F,C][F,C] | [C,C]C,E,G, C2 C,2 | %13
 F,F,F,[F,CF] [D,C][D,C][D,A,]D, | z2[K:treble] ^F2 z4[K:bass] | %15
 [E,G,]E,E,[E,G,][K:treble] [G,B,G][G,B,G][CG][C_B] | [F,C]F,F,F, F,2[K:treble] [F,CF]2 | %17
 [G,CE][G,CE] z [G,CG][K:bass] D,2 G,2 |[M:3/4] z C B,A, G,2 |] %19
V:3
 x8 | x8 | x8 | x8 |[M:3/4] x6 |[M:1/4] x2 |[M:4/4][K:treble] x8 | x8 | x8 | %9
[M:7/8][K:treble] [G,B,]-[G,B,]-[G,B,]- [G,B,]- [G,B,]3 |[M:1/4][K:bass] x2 |[M:4/4] x8 | x8 | x8 | %14
 G,G,[K:treble][G,A,]G, [G,B,=F]2[K:bass] G,2 | x4[K:treble] x4 | x6[K:treble] x2 | x4[K:bass] x4 | %18
[M:3/4] C,6 |] %19
V:4
 x8 | x8 | x8 | x8 |[M:3/4] x6 |[M:1/4] x2 |[M:4/4] x8 | x8 | x8 |[M:7/8] x7 |[M:1/4] x2 | %11
[M:4/4] z CC[Ge] [Ad][Ac][GB][FA] | z CCC z2 [CEG]2 | CCCA [FA][Fe][Fd][Dc] | DD z A, d2 G2 | %15
 z G,G,[Gc] ddee | z CCC C2 A2 | x8 |[M:3/4] [CE]E GF E2 |] %19

